!!!OTL: Guter Himmel, ich mu&szlig; scheiden (169), S. 367
!!!id: T0342
**kern
*clefG2
*k[f#c#]
*D:
{8d
=1
8d
4.f#
=2yy
8e
=3
8a
8a
8g
8e
=4
8d
8f#
4f#}
=5
{4.a
8f#
=6
8a
8a
8g
8g
=7
4f#}
4r
=8
{4.a
8f#
=9
8dd
8cc#
8cc#
8b
=10
8d
8b
4b}
=11
{4.a
8a
=12
8cc#
8b
8a
8g
=13
4f#}
4r
=14
{4.a
8f#
=15
8dd
8cc#
8cc#
8b
=16
8d
8b
4b}
=17
{4.a
8a
=18
8cc#
8b
8a
8g
=19
4f#}
4r
==
*-
!!!minrhy: 8
!!!meters: 2/4 ]  ZZ[6
!!!cut: Guter Himmel, ich mu&szlig; scheiden (169), S. 367
!!!reg: Luxemburg
!!!trd: Singendes Volk, Esch-Alzette, 1937 posth.
!!!rhy1:   X_.X  XXXX  XXX_
!!!rhy2: X_.X  XXXX  X_0_
!!!key: T0342  08  D 2/4 ]  ZZ[6
!!!mod: HEPTATONIK IONISCH]  AMBITUS[8
!!!kad: 336363
!!!akz: 351_553_5+11_573_5+11_573_
!!!fot: 'a__b__c__as"c__as"
!!!for: 'a__aw_a__aw_a__aw_
!!!fok: '~__\__~a_^d_~a_^d_
!! PHRAS[VOLLTAKTIG]
!!!fkt: Abschieds- und Wanderlieder, Heimatlieder,  Liebeslied
!!!bem: Merzig, hhh Anton Koob, Liederheft, 1861
!! THILL, Mathias:
!! PR[39] 2K[3] 2G[3] 3K[3] 3G[0] 4A[9] 4Ü[0] 5A[3] 6K[0] 6G[0]
!! 7K[0] 7G[0] 8A[0] MEHR[0] SI[21] ABS[33] SR[6] SP[15]
!! ST[8] 2k[15] 2g[21] 3k[0] 3g[3] 4d[0] 4ü[0] 5d[0] 6k[0] 6g[0]
!! 7k[0] 7g[0] 8d[0] mehr[0] si[39] dm[-18] sr[36] sp[3]
!! 1F[16] 2F[32] 3F[32] 4F[11] LF[0] 2P[5] 3P[5] 4P[0] TRI[0] DF[6] AB[38]
!! TF[0] U3K[0] U3[0] U4[0] U4Ü[0] U5[35] U6K[0] U6[12] U7K[0] U7[12]
!! N1[26] N2K[0] N2[9] N3K[0] N3[3] N4[3] N4Ü[0] N5[0] N6K[0] N6[0]
!!!n7k: 0] N7[0] O1[0] O2K[0] O2[0] O3K[0] O3[0] HÖ[0
!!!RNB: symbol: &szlig; = sz ligature (UTF-8: ÃŸ)
